data/styles/clear/style-clear/symbols/windmill-m.svg

<svg height="24" viewBox="0 0 24 24" width="24"><g fill="none" fill-rule="evenodd"><circle cx="12" cy="12" fill="#fff" opacity=".6" r="12"/><circle cx="12" cy="12" fill="#717065" r="11"/><path d="m12.00032 12.9674395-2.76718902 3.3822531-.24053176 2.6503074h6.01436788l-.234089-2.7692255zm5.6868581.1327458-4.6388268-2.9489855 4.6388268-2.95082916c.3811999-.24336736.4177092-.67294762.081609-.96148543l-1.2133968-1.04260787c-.3350264-.28761597-.8354184-.25535136-1.1189022.07190399l-3.4350942 3.98329675-3.43938949-3.98329675c-.28241006-.32725535-.78280203-.35951996-1.11782841-.07190399l-1.21554444 1.04260787c-.33502639.28761597-.2974433.71811807.08375659.95964173l4.64204825 2.95082916-4.64097444 2.9517511c-.3811999.2424455-.41770918.6720257-.08160899.9605635l1.21232303 1.0426079c.33502638.287616.83541835.2553514 1.11997602-.0700603l3.43616798-3.9842186 3.4361681 3.9814531c.2834838.3281772.782802.3595199 1.1189022.0709821l1.2155444-1.0407642c.3361002-.2885378.2974433-.7190399-.0837566-.9614854z" fill="#fff"/></g></svg>

<svg width="24" height="24" viewBox="0 0 24 24">
  <g fill="none" fill-rule="evenodd">
    <circle cx="12" cy="12" r="12" fill="#FFF" opacity=".6"/>
    <circle cx="12" cy="12" r="11" fill="#717065"/>
    <path fill="#FFF" d="M12.00032,12.9674395 L9.23313098,16.3496926 L8.99259922,19 L15.0069671,19 L14.7728781,16.2307745 L12.00032,12.9674395 L12.00032,12.9674395 Z M17.6871781,13.1001853 L13.0483513,10.1511998 L17.6871781,7.20037064 C18.068378,6.95700328 18.1048873,6.52742302 17.7687871,6.23888521 L16.5553903,5.19627734 C16.2203639,4.90866137 15.7199719,4.94092598 15.4364881,5.26818133 L12.0013939,9.25147808 L8.56200441,5.26818133 C8.27959435,4.94092598 7.77920238,4.90866137 7.444176,5.19627734 L6.22863156,6.23888521 C5.89360517,6.52650118 5.93118826,6.95700328 6.31238815,7.19852694 L10.9544364,10.1493561 L6.31346196,13.1011072 C5.93226206,13.3435527 5.89575278,13.7731329 6.23185297,14.0616707 L7.444176,15.1042786 C7.77920238,15.3918946 8.27959435,15.35963 8.56415202,15.0342183 L12.00032,11.0499997 L15.4364881,15.0314528 C15.7199719,15.35963 16.2192901,15.3909727 16.5553903,15.1024349 L17.7709347,14.0616707 C18.1070349,13.7731329 18.068378,13.3426308 17.6871781,13.1001853 L17.6871781,13.1001853 Z"/>
  </g>
</svg>
